src/images/mobile-icons/cup.svg

<svg viewBox="0 0 512 512" xmlns="http://www.w3.org/2000/svg" xmlns:xlink="http://www.w3.org/1999/xlink">
  <title>cup</title>
  <path d="M384,64 L383.999667,106.666 L448,106.666667 C459.664254,106.666667 469.142085,116.027855 469.330475,127.647214 L469.333333,128 L469.333333,192 C469.333333,239.128299 431.128299,277.333333 384,277.333333 L384,277.333333 L376.716221,277.334283 C361.436112,320.564596 323.591738,353.13582 277.334332,360.896719 L277.332667,405.333 L320,405.333333 C343.564149,405.333333 362.666667,424.435851 362.666667,448 L362.666667,469.333333 L149.333333,469.333333 L149.333333,448 C149.333333,424.435851 168.435851,405.333333 192,405.333333 L234.666667,405.333 L234.665668,360.896719 C188.408262,353.13582 150.563888,320.564596 135.283779,277.334283 L128,277.333333 C80.8717013,277.333333 42.6666667,239.128299 42.6666667,192 L42.6666667,128 C42.6666667,116.217925 52.2179253,106.666667 64,106.666667 L127.999667,106.666 L128,64 L384,64 Z M426.666667,149.333333 L383.999667,149.333 L384,234.666667 L384.705571,234.660951 C407.944289,234.28417 426.666667,215.328508 426.666667,192 L426.666667,192 L426.666667,149.333333 Z M127.999667,149.333 L85.3333333,149.333333 L85.3333333,192 C85.3333333,215.328508 104.055711,234.28417 127.294429,234.660951 L128,234.666667 L128,234.666667 L127.999667,149.333 Z" fill="#000" stroke="none" stroke-width="1" fill-rule="evenodd"></path>
</svg>

<svg viewBox="0 0 512 512" xmlns="http://www.w3.org/2000/svg" xmlns:xlink="http://www.w3.org/1999/xlink">
  <title>cup</title>
  <path d="M384 64v42.666h64c11.664 0 21.142 9.362 21.33 20.981l.003.353v64c0 47.128-38.205 85.333-85.333 85.333l-7.284.001c-15.28 43.23-53.124 75.802-99.382 83.563l-.001 44.436H320c23.564 0 42.667 19.103 42.667 42.667v21.333H149.333V448c0-23.564 19.103-42.667 42.667-42.667h42.667l-.001-44.436c-46.258-7.761-84.102-40.332-99.382-83.563H128c-47.128 0-85.333-38.206-85.333-85.334v-64c0-11.782 9.55-21.333 21.333-21.333l64-.001V64h256zm42.667 85.333H384v85.334l.706-.006c23.238-.377 41.96-19.332 41.96-42.661v-42.667zm-298.667 0H85.333V192c0 23.329 18.723 42.284 41.961 42.661l.706.006v-85.334z" fill="#000" stroke="none" stroke-width="1" fill-rule="evenodd"></path>
</svg>
